X:2

T:Basket of Oysters or Green Sleeves

M:6/8

L:1/8

R:Jig

S:William Vickers’ music manuscript (1770-72)

Z:AK/Fiddler’s Companion

K:F

e|f2f fga|ge c2e|f2d ded|e2A A2e|f2f fga|g2e c2e|f2d gec|d3 d2:|

|:e|f2c AFA|c2A A2e|f2c AFA|B2G G2e|f2c AFA|c2A A2f|afd gec|d3 d2:|

 

BASKET OF OYSTERS [3]. Irish, Jig. G Major. Standard tuning. AABBCCDD. Source for notated version: copied from O’Farrell’s Pocket Companion (1804-10) [O’Neill]. O’Farrell (Pocket Companion, vol. IV), 1810; pg. 123. O’Neill (Waifs and Strays of Gaelic Melody), 1922; No. 152.

